packages/radix-icons/twoTone/15/box.svg

<svg width="15" height="15" fill="none" xmlns="http://www.w3.org/2000/svg">
  <path
    d="M12 2.5H3C2.72386 2.5 2.5 2.72386 2.5 3V12C2.5 12.2761 2.72386 12.5 3 12.5H12C12.2761 12.5 12.5 12.2761 12.5 12V3C12.5 2.72386 12.2761 2.5 12 2.5Z"
    fill="currentColor"
    opacity=".2"
  />
  <path
    fill-rule="evenodd"
    clip-rule="evenodd"
    d="M2 3C2 2.44772 2.44772 2 3 2H12C12.5522 2 13 2.44769 13 3V12C13 12.5522 12.5522 13 12 13H3C2.44769 13 2 12.5522 2 12V3ZM12 3H3V12H12V3Z"
    fill="currentColor"
  />
</svg>

<svg width="15" height="15" fill="none" xmlns="http://www.w3.org/2000/svg">
  <path
    d="M12 2.5H3a.5.5 0 00-.5.5v9a.5.5 0 00.5.5h9a.5.5 0 00.5-.5V3a.5.5 0 00-.5-.5z"
    fill="currentColor"
    opacity=".2"
  />
  <path
    fill-rule="evenodd"
    clip-rule="evenodd"
    d="M2 3a1 1 0 011-1h9a1 1 0 011 1v9a1 1 0 01-1 1H3a1 1 0 01-1-1V3zm10 0H3v9h9V3z"
    fill="currentColor"
  />
</svg>
